packages/icons/svg/Fill/play-circle.svg

<svg fill="none" height="24" viewBox="0 0 24 24" width="24" xmlns="http://www.w3.org/2000/svg"><path clip-rule="evenodd" d="m11.5 14.5992 2.809-2.6-2.809-2.59895zm4.48-1.4206-3.642 3.37c-.319.296-.734.451-1.157.451-.233 0-.47-.048-.693-.145-.60998-.266-.98798-.835-.98798-1.485v-6.74002c0-.649.378-1.219.98798-1.484.626-.275 1.353-.155 1.851.306l3.641 3.37002c.331.305.52.735.52 1.178 0 .444-.189.873-.52 1.179zm-3.98-11.17909c-5.51398 0-9.99998 4.487-9.99998 9.99999 0 5.514 4.486 10 9.99998 10 5.514 0 10-4.486 10-10 0-5.51299-4.486-9.99999-10-9.99999z" fill="#6b7280" fill-rule="evenodd"/></svg>

<svg width="24" height="24" viewBox="0 0 24 24" fill="none" xmlns="http://www.w3.org/2000/svg">
<g id="Icon/Fill/play-circle">
<path id="Mask" fill-rule="evenodd" clip-rule="evenodd" d="M11.5 14.5996L14.309 11.9996L11.5 9.40059V14.5996ZM15.98 13.1787L12.338 16.5487C12.019 16.8447 11.604 16.9997 11.181 16.9997C10.948 16.9997 10.711 16.9517 10.488 16.8547C9.878 16.5887 9.5 16.0197 9.5 15.3697V8.62969C9.5 7.98069 9.878 7.41069 10.488 7.14569C11.114 6.87069 11.841 6.99069 12.339 7.45169L15.98 10.8217C16.311 11.1267 16.5 11.5567 16.5 11.9997C16.5 12.4437 16.311 12.8727 15.98 13.1787ZM12 1.99969C6.486 1.99969 2 6.48669 2 11.9997C2 17.5137 6.486 21.9997 12 21.9997C17.514 21.9997 22 17.5137 22 11.9997C22 6.48669 17.514 1.99969 12 1.99969Z" fill="#000000"/>
</g>
</svg>
